icon/pk/watch-one.svg

<svg viewBox="0 0 48 48" fill="none" xmlns="http://www.w3.org/2000/svg" height="1em" width="1em">
  <path d="M19 14V6C19 4.89543 19.8954 4 21 4H27C28.1046 4 29 4.89543 29 6V14" stroke="black" stroke-width="4" stroke-linecap="round"/>
  <path d="M29 34V42C29 43.1046 28.1046 44 27 44H21C19.8954 44 19 43.1046 19 42V34" stroke="black" stroke-width="4" stroke-linecap="round"/>
  <circle cx="24" cy="24" r="11" fill="#2F88FF" stroke="black" stroke-width="4"/>
  <path d="M21 25L25 25" stroke="white" stroke-width="4" stroke-linecap="round" stroke-linejoin="round"/>
  <path d="M25 21V25" stroke="white" stroke-width="4" stroke-linecap="round" stroke-linejoin="round"/>
</svg>

<svg width="48" height="48" fill="none" xmlns="http://www.w3.org/2000/svg"><path d="M19 14V6a2 2 0 0 1 2-2h6a2 2 0 0 1 2 2v8M29 34v8a2 2 0 0 1-2 2h-6a2 2 0 0 1-2-2v-8" stroke="#000" stroke-width="4" stroke-linecap="round"/><circle cx="24" cy="24" r="11" fill="#2F88FF" stroke="#000" stroke-width="4"/><path d="M21 25h4M25 21v4" stroke="#fff" stroke-width="4" stroke-linecap="round" stroke-linejoin="round"/></svg>
